X: 207
T: The Tongadale Reel
C:Farquhar McDonald (1995)
M:4/4
F:http://blackrosetheband.googlepages.com/ABCTUNES.ABC May 2009
R:Reel
K:Am
AB |:\
cBcB AEAB | cBcB AFAc | BGDG EDEG | DEGB- B2AB |
cBcB AEAB | cBcB AFAc | BGDG EDEG |1 EDCB, A,2 AB :|2 EDCB, A,2 A,B, ||
|:\
CA,EA, FA,EA, | GA,EA, FA,DC | B,G,DG, EG,DG, | F2ED DCA,B, |
CA,EA, FA,EA, | GA,EA, FA,DC | B,G,DG, EG,CB, |1 CA,A,G, A,3B, :|2 CA,A,G, A,2 AB |]

%%sep 1 1 500

